X: 35270
T: Rose In The Garden, The
R: reel
M: 4/4
K: Gmajor
ABAc B~G3|BGBd gBfB|eA A/A/A BGGA|e/f/g dc BdgB|
AGAc B~G3|BGBd g2 ga|bgag e/f/g fa|1 gedc BG G/G/G:|2 gedc BGG2||
b~g3 agef|gage dega|b~g3 bgag|e~a3 e~a3|
b~g3 agef|gage dega|bgag e/f/g fa|1 gedc BGG2:|2 gedc BG G/G/G||

